X: 5616
T: Butter Boys
R: hornpipe
M: 4/4
K: Gmajor
(3def|g2gf gdga|bage dBGA|Bd G2 Bd GA|BGcB AGED|
g2gf gdga|bage dBGA|Bdge dBAB|G2 GG G2:|
(3DEF|G2GF GABd|edgf edBd|edge dBGA|BGcB AGED|
G2GF GABd|edge dBGA|Bdge dBAB|G2 GG G2:|

